assets/icons/line-active.svg

<svg width="24" height="24" viewBox="0 0 24 24" xmlns="http://www.w3.org/2000/svg">
  <g id="Styleguide" fill="none" fill-rule="evenodd">
    <g id="Base-Style---Icons" transform="translate(-1020 -1836)">
      <g id="Line-Active" transform="translate(1007 1836)">
        <g id="Line-Icon-Copy" transform="translate(13)">
          <path id="Rectangle-115" d="M0 0H23.862V23.862H0z"/>
          <path d="M21.7268702,10.9079882 C21.7268702,6.53817301 17.2994443,2.98269024 11.8577447,2.98269024 C6.4160451,2.98269024 1.98846016,6.53817301 1.98846016,10.9079882 C1.98846016,14.8256938 5.49928542,18.1071088 10.2424788,18.7276575 C10.5634958,18.7961351 11.000957,18.9376555 11.1115154,19.2092046 C11.2114156,19.4561962 11.177055,19.8423468 11.1434898,20.0923294 C11.1434898,20.0923294 11.0280001,20.7813557 11.0028659,20.9282284 C10.9599152,21.17522 10.8040199,21.8938412 11.8577447,21.4547975 C12.9108332,21.0159112 17.5409229,18.1428431 19.6114667,15.7840654 L19.6109895,15.7843802 C21.0417264,14.2323788 21.7268702,12.6572366 21.7268702,10.9079882 L21.7268702,10.9079882 Z M7.99456431,13.5084053 L6.03346536,13.5084053 C5.74808156,13.5084053 5.51630664,13.278415 5.51630664,12.9958465 L5.51630664,9.1149771 C5.51630664,8.83256605 5.74808156,8.6027332 6.03346536,8.6027332 C6.31884917,8.6027332 6.55110131,8.83256605 6.55110131,9.1149771 L6.55110131,12.48376 L7.99456431,12.48376 C8.27994812,12.48376 8.51172303,12.7135929 8.51172303,12.9958465 C8.51172303,13.278415 8.27994812,13.5084053 7.99456431,13.5084053 L7.99456431,13.5084053 Z M10.0226346,12.9958465 C10.0226346,13.278415 9.79085969,13.5084053 9.50547588,13.5084053 C9.219933,13.5084053 8.98815809,13.278415 8.98815809,12.9958465 L8.98815809,9.1149771 C8.98815809,8.83256605 9.219933,8.6027332 9.50547588,8.6027332 C9.79085969,8.6027332 10.0226346,8.83256605 10.0226346,9.1149771 L10.0226346,12.9958465 L10.0226346,12.9958465 Z M14.7427618,12.9958465 C14.7427618,13.2168639 14.6011834,13.4122218 14.389134,13.4816439 C14.3360024,13.4992749 14.2806437,13.5084053 14.2246486,13.5084053 C14.0633447,13.5084053 13.9090402,13.431427 13.8113671,13.3034447 L11.8019088,10.5951951 L11.8019088,12.9958465 C11.8019088,13.278415 11.5701338,13.5084053 11.2842728,13.5084053 C10.998889,13.5084053 10.766955,13.278415 10.766955,12.9958465 L10.766955,9.1149771 C10.766955,8.8942746 10.9090106,8.69891667 11.1201055,8.6290223 C11.1737144,8.61123386 11.2292322,8.6027332 11.28475,8.6027332 C11.446213,8.6027332 11.6011538,8.67939662 11.6981907,8.80753631 L13.7079671,11.5159433 L13.7079671,9.1149771 C13.7079671,8.83256605 13.9402193,8.6027332 14.2256031,8.6027332 C14.5109869,8.6027332 14.7427618,8.83256605 14.7427618,9.1149771 L14.7427618,12.9958465 L14.7427618,12.9958465 Z M17.9160261,10.543404 C18.2014099,10.543404 18.433662,10.7730795 18.433662,11.0558054 C18.433662,11.3377442 18.2014099,11.567577 17.9160261,11.567577 L16.4725631,11.567577 L16.4725631,12.48376 L17.9160261,12.48376 C18.2014099,12.48376 18.433662,12.7135929 18.433662,12.9958465 C18.433662,13.278415 18.2014099,13.5084053 17.9160261,13.5084053 L15.9549271,13.5084053 C15.6700205,13.5084053 15.4377684,13.278415 15.4377684,12.9958465 L15.4377684,9.1149771 C15.4377684,8.83256605 15.6695433,8.6027332 15.9549271,8.6027332 L17.9160261,8.6027332 C18.2014099,8.6027332 18.433662,8.83256605 18.433662,9.1149771 C18.433662,9.39723074 18.2014099,9.62690617 17.9160261,9.62690617 L16.4725631,9.62690617 L16.4725631,10.543404 L17.9160261,10.543404 L17.9160261,10.543404 Z" id="Line-Icon" fill="#00C300"/>
        </g>
      </g>
    </g>
  </g>
</svg>

<svg width="24" height="24" viewBox="0 0 24 24" xmlns="http://www.w3.org/2000/svg">
  <g fill="none" fill-rule="evenodd">
    <path d="M0 0h23.862v23.862H0z"/>
    <path d="M21.727 10.908c0-4.37-4.428-7.925-9.87-7.925-5.441 0-9.869 3.555-9.869 7.925 0 3.918 3.511 7.2 8.254 7.82.321.068.759.21.87.481.1.247.065.633.031.883l-.14.836c-.043.247-.199.966.855.527 1.053-.44 5.683-3.312 7.753-5.67 1.43-1.553 2.116-3.128 2.116-4.877zm-13.732 2.6H6.033a.515.515 0 0 1-.517-.512V9.115c0-.282.232-.512.517-.512.286 0 .518.23.518.512v3.369h1.444c.285 0 .517.23.517.512a.515.515 0 0 1-.517.512zm2.028-.512a.515.515 0 0 1-.518.512.515.515 0 0 1-.517-.512V9.115c0-.282.232-.512.517-.512.286 0 .518.23.518.512v3.88zm4.72 0a.51.51 0 0 1-.518.512.523.523 0 0 1-.414-.205l-2.01-2.708v2.4a.515.515 0 0 1-.517.513.515.515 0 0 1-.517-.512V9.115a.512.512 0 0 1 .518-.512.52.52 0 0 1 .413.205l2.01 2.708V9.115c0-.282.232-.512.518-.512.285 0 .517.23.517.512v3.88zm3.173-2.453c.285 0 .518.23.518.513a.516.516 0 0 1-.518.512h-1.443v.916h1.443c.285 0 .518.23.518.512a.516.516 0 0 1-.518.512h-1.961a.516.516 0 0 1-.517-.512V9.115c0-.282.232-.512.517-.512h1.961c.285 0 .518.23.518.512a.515.515 0 0 1-.518.512h-1.443v.916h1.443z" fill="#00C300"/>
  </g>
</svg>
